raw-svg/arrow-down-left-and-arrow-up-right-to-center.svg

<svg fill="none" height="24" viewBox="0 0 24 24" width="24" xmlns="http://www.w3.org/2000/svg"><path clip-rule="evenodd" d="m19 11.25c.4142 0 .75-.3358.75-.75s-.3358-.75-.75-.75h-3.6893l4.7196-4.71967c.2929-.29289.2929-.76776.0001-1.06066-.2929-.29289-.7678-.29289-1.0607 0l-4.7197 4.71968v-3.68935c0-.41421-.3358-.75-.75-.75s-.75.33579-.75.75v5.5c0 .4142.3358.75.75.75zm-14 1.5c-.41421 0-.75.3358-.75.75s.33579.75.75.75h3.68934l-4.71967 4.7197c-.29289.2929-.29289.7677 0 1.0606s.76777.2929 1.06066 0l4.71967-4.7196v3.6893c0 .4142.3358.75.75.75s.75-.3358.75-.75v-5.5c0-.4142-.3358-.75-.75-.75z" fill="#000" fill-rule="evenodd"/></svg>

<svg width="24" height="24" viewBox="0 0 24 24" fill="none" xmlns="http://www.w3.org/2000/svg">
<path fill-rule="evenodd" clip-rule="evenodd" d="M19 11.25C19.4142 11.25 19.75 10.9142 19.75 10.5C19.75 10.0858 19.4142 9.75 19 9.75L15.3107 9.75L20.0303 5.03033C20.3232 4.73744 20.3232 4.26257 20.0304 3.96967C19.7375 3.67678 19.2626 3.67678 18.9697 3.96967L14.25 8.68935L14.25 5C14.25 4.58579 13.9142 4.25 13.5 4.25C13.0858 4.25 12.75 4.58579 12.75 5L12.75 10.5C12.75 10.9142 13.0858 11.25 13.5 11.25L19 11.25ZM5 12.75C4.58579 12.75 4.25 13.0858 4.25 13.5C4.25 13.9142 4.58579 14.25 5 14.25H8.68934L3.96967 18.9697C3.67678 19.2626 3.67678 19.7374 3.96967 20.0303C4.26256 20.3232 4.73744 20.3232 5.03033 20.0303L9.75 15.3107V19C9.75 19.4142 10.0858 19.75 10.5 19.75C10.9142 19.75 11.25 19.4142 11.25 19V13.5C11.25 13.0858 10.9142 12.75 10.5 12.75H5Z" fill="black"/>
</svg>
